X:73
M:2/4
L:1/8
K:G
|: gaga | gagd | gaga | gaba | gaga | gagd | (e/f/g) g>d | B>G G2 :|

